packages/sources/icons/src/vitamix/bill-fill.svg

<svg width="16" height="16" viewBox="0 0 16 16" xmlns="http://www.w3.org/2000/svg"><path d="M13.3333 14.6633H2.66667C2.48986 14.6633 2.32029 14.5931 2.19526 14.4681C2.07024 14.343 2 14.1735 2 13.9967V1.99667C2 1.81986 2.07024 1.65029 2.19526 1.52526C2.32029 1.40024 2.48986 1.33 2.66667 1.33H13.3333C13.5101 1.33 13.6797 1.40024 13.8047 1.52526C13.9298 1.65029 14 1.81986 14 1.99667V13.9967C14 14.1735 13.9298 14.343 13.8047 14.4681C13.6797 14.5931 13.5101 14.6633 13.3333 14.6633ZM5.33333 5.99667V7.33H10.6667V5.99667H5.33333ZM5.33333 8.66333V9.99667H10.6667V8.66333H5.33333Z"/></svg>

<svg width="16" height="16" xmlns="http://www.w3.org/2000/svg"><path d="M13.333 14.663H2.667A.667.667 0 0 1 2 13.997v-12a.667.667 0 0 1 .667-.667h10.666a.667.667 0 0 1 .667.667v12a.667.667 0 0 1-.667.666Zm-8-8.666V7.33h5.334V5.997H5.333Zm0 2.666v1.334h5.334V8.663H5.333Z"/></svg>
